src/res/quark-logo.svg

<svg width="256" height="256" viewBox="0 0 256 256" fill="none" xmlns="http://www.w3.org/2000/svg">
<g clip-path="url(#clip0_1_3)">
<path d="M128 0L238.851 64V192L128 256L17.1488 192V64L128 0Z" fill="white"/>
<path fill-rule="evenodd" clip-rule="evenodd" d="M238.851 64L128 0L17.1487 64V192L128 256L177.661 227.328C177.784 208.194 177.836 191.857 177.836 187.448V175.521C177.836 174.468 177.911 172.742 178.013 170.391C178.071 169.058 178.137 167.523 178.204 165.797C173.79 170.2 171.399 172.035 167.352 174.237C159.811 178.274 150.063 180.475 140.315 180.475C125.785 180.475 112.91 175.521 103.898 166.714C94.1499 156.99 89 142.311 89 124.696C89 89.4676 109.048 68 141.971 68C157.236 68 169.56 72.9541 178.204 82.4952C178.02 80.8438 178.02 78.4586 178.02 76.8072V70.9357H208C206.896 78.8255 206.529 85.6144 206.529 97.5409V187.631C206.529 190.598 206.553 199.261 206.608 210.616L238.851 192V64ZM146.569 157.173C129.648 157.173 118.612 144.513 118.612 124.88C118.612 104.513 129.832 91.4859 147.488 91.4859C164.777 91.4859 177.284 105.064 177.284 123.779C177.284 130.751 175.997 136.439 172.87 141.944C167.904 151.302 157.604 157.173 146.569 157.173Z" fill="#202344"/>
<path fill-rule="evenodd" clip-rule="evenodd" d="M238.806 63.9739L128 0L17.1487 64V191.415L238.806 63.9739Z" fill="white" fill-opacity="0.25"/>
</g>
<defs>
<clipPath id="clip0_1_3">
<rect width="256" height="256" fill="white"/>
</clipPath>
</defs>
</svg>

<?xml version="1.0" encoding="UTF-8"?>
<svg id="Layer_1" data-name="Layer 1" xmlns="http://www.w3.org/2000/svg" width="256" height="256" viewBox="0 0 256 256">
  <path d="M128,0l110.85,64v128l-110.85,64L17.15,192V64L128,0Z" style="fill: #fff; stroke-width: 0px;"/>
  <path d="M238.85,64L128,0,17.15,64v128l110.85,64,49.66-28.67c.12-19.13.18-35.47.18-39.88v-11.93c0-1.05.07-2.78.18-5.13.06-1.33.12-2.87.19-4.59-4.41,4.4-6.8,6.24-10.85,8.44-7.54,4.04-17.29,6.24-27.04,6.24-14.53,0-27.4-4.95-36.42-13.76-9.75-9.72-14.9-24.4-14.9-42.02,0-35.23,20.05-56.7,52.97-56.7,15.26,0,27.59,4.95,36.23,14.5-.18-1.65-.18-4.04-.18-5.69v-5.87h29.98c-1.1,7.89-1.47,14.68-1.47,26.61v90.09c0,2.97.02,11.63.08,22.99l32.24-18.62V64ZM146.57,157.17c-16.92,0-27.96-12.66-27.96-32.29s11.22-33.39,28.88-33.39,29.8,13.58,29.8,32.29c0,6.97-1.29,12.66-4.41,18.17-4.97,9.36-15.27,15.23-26.3,15.23Z" style="fill: #202344; fill-rule: evenodd; stroke-width: 0px;"/>
  <path d="M238.81,63.97L128,0,17.15,64v127.41L238.81,63.97Z" style="fill: rgba(255, 255, 255, .25); fill-rule: evenodd; stroke-width: 0px;"/>
</svg>
